images/my-home.svg

<svg width="88" height="88" viewBox="0 0 88 88" fill="none" xmlns="http://www.w3.org/2000/svg">
<g id="Group 9">
<g id="Oval" filter="url(#filter0_i_0_1053)">
<circle cx="44" cy="44" r="44" fill="#68A4A4"/>
</g>
<circle id="Oval_2" opacity="0.25" r="24" transform="matrix(-1 0 0 1 45 44)" fill="url(#paint0_linear_0_1053)"/>
<path id="MYHOME" fill-rule="evenodd" clip-rule="evenodd" d="M50.1192 47C51.8939 47 53.3075 45.65 53.3075 44C53.3075 42.34 51.8939 41 50.1192 41C48.3444 41 46.9308 42.34 46.9308 44C46.9308 45.65 48.3444 47 50.1192 47ZM9.38265 46.89V43.54L11.0645 46.16H11.2709L12.9528 43.54V46.89H14.3354V41.1H12.9528L11.1677 43.82L9.38265 41.1H8V46.89H9.38265ZM25.0664 46.89V44.94L27.2126 41.1H25.7371L24.3751 43.61L23.0234 41.1H21.5479L23.6941 44.94V46.89H25.0664ZM35.8077 44.88V46.89H34.4251V41.1H35.8077V43.66H38.0055V41.1H39.3882V46.89H38.0055V44.88H35.8077ZM48.3651 44C48.3651 44.96 49.1389 45.77 50.1192 45.77C51.0994 45.77 51.8733 44.96 51.8733 44C51.8733 43.02 51.0994 42.23 50.1192 42.23C49.1389 42.23 48.3651 43.02 48.3651 44ZM62.2328 46.89V43.54L63.9147 46.16H64.1211L65.8029 43.54V46.89H67.1856V41.1H65.8029L64.0179 43.82L62.2328 41.1H60.8502V46.89H62.2328ZM79 45.66V46.89H74.8314V41.1H79V42.33H76.2141V43.43H78.7833V44.66H76.2141V45.66H79Z" fill="white"/>
</g>
<defs>
<filter id="filter0_i_0_1053" x="0" y="0" width="88" height="88" filterUnits="userSpaceOnUse" color-interpolation-filters="sRGB">
<feFlood flood-opacity="0" result="BackgroundImageFix"/>
<feBlend mode="normal" in="SourceGraphic" in2="BackgroundImageFix" result="shape"/>
<feColorMatrix in="SourceAlpha" type="matrix" values="0 0 0 0 0 0 0 0 0 0 0 0 0 0 0 0 0 0 127 0" result="hardAlpha"/>
<feOffset/>
<feGaussianBlur stdDeviation="17.5"/>
<feComposite in2="hardAlpha" operator="arithmetic" k2="-1" k3="1"/>
<feColorMatrix type="matrix" values="0 0 0 0 0 0 0 0 0 0 0 0 0 0 0 0 0 0 0.0452633 0"/>
<feBlend mode="normal" in2="shape" result="effect1_innerShadow_0_1053"/>
</filter>
<linearGradient id="paint0_linear_0_1053" x1="24" y1="-24" x2="-24" y2="24" gradientUnits="userSpaceOnUse">
<stop stop-color="white"/>
<stop offset="1" stop-color="white" stop-opacity="0.01"/>
</linearGradient>
</defs>
</svg>

<svg width="88" height="88" fill="none" xmlns="http://www.w3.org/2000/svg"><g filter="url(#a)"><circle cx="44" cy="44" r="44" fill="#68A4A4"/></g><circle opacity=".25" r="24" transform="matrix(-1 0 0 1 45 44)" fill="url(#b)"/><path fill-rule="evenodd" clip-rule="evenodd" d="M50.12 47c1.774 0 3.188-1.35 3.188-3 0-1.66-1.414-3-3.189-3-1.775 0-3.188 1.34-3.188 3 0 1.65 1.413 3 3.188 3Zm-40.737-.11v-3.35l1.682 2.62h.206l1.682-2.62v3.35h1.382V41.1h-1.382l-1.785 2.72-1.785-2.72H8v5.79h1.383Zm15.683 0v-1.95l2.147-3.84h-1.476l-1.362 2.51-1.352-2.51h-1.475l2.146 3.84v1.95h1.372Zm10.742-2.01v2.01h-1.383V41.1h1.383v2.56h2.197V41.1h1.383v5.79h-1.383v-2.01h-2.197ZM48.365 44c0 .96.774 1.77 1.754 1.77s1.754-.81 1.754-1.77a1.753 1.753 0 1 0-3.508 0Zm13.868 2.89v-3.35l1.682 2.62h.206l1.682-2.62v3.35h1.383V41.1h-1.383l-1.785 2.72-1.785-2.72H60.85v5.79h1.383ZM79 45.66v1.23h-4.169V41.1H79v1.23h-2.786v1.1h2.57v1.23h-2.57v1H79Z" fill="#fff"/><defs><linearGradient id="b" x1="24" y1="-24" x2="-24" y2="24" gradientUnits="userSpaceOnUse"><stop stop-color="#fff"/><stop offset="1" stop-color="#fff" stop-opacity=".01"/></linearGradient><filter id="a" x="0" y="0" width="88" height="88" filterUnits="userSpaceOnUse" color-interpolation-filters="sRGB"><feFlood flood-opacity="0" result="BackgroundImageFix"/><feBlend in="SourceGraphic" in2="BackgroundImageFix" result="shape"/><feColorMatrix in="SourceAlpha" values="0 0 0 0 0 0 0 0 0 0 0 0 0 0 0 0 0 0 127 0" result="hardAlpha"/><feOffset/><feGaussianBlur stdDeviation="17.5"/><feComposite in2="hardAlpha" operator="arithmetic" k2="-1" k3="1"/><feColorMatrix values="0 0 0 0 0 0 0 0 0 0 0 0 0 0 0 0 0 0 0.0452633 0"/><feBlend in2="shape" result="effect1_innerShadow_0_1053"/></filter></defs></svg>
